X:1370
T:Vals efter Lasse i Lyby 
C:Lasse Lyby
R:Vals
Z:Patrik Månsson, 2008-10-23
O:Lyby, Skåne
S:Svenska Låtar Skåne
B:Svenska Låtar Skåne
R:Waltz
M:3/4
L:1/8
K:Am
|: e2 de c2 | B2 G2 E2 | C2 E2 G2 | cB cd e2 | e2 de c2 | 
B2 G2 E2 | C2 E2 GB|1 A4 z2 :|2 A4 |: AB | cB AB cd | e4 (3ede | 
g2 e2 g2 | e4 AB | cB AB cd | e4 (3ede | g2 e2 g2 | 
e4 z2 | e2 de c2 | B2 G2 E2 | C2 E2 GB | A4 :|

